<?xml version="1.0" encoding="UTF-8"?>
<map version="1.10" tiledversion="1.10.2" orientation="orthogonal" renderorder="right-down" width="40" height="28" tilewidth="8" tileheight="8" infinite="0" nextlayerid="6" nextobjectid="24">
 <tileset firstgid="1" source="boss-stage.tsx"/>
 <layer id="1" name="gfx" width="40" height="28">
  <data encoding="csv">
11,11,11,11,11,11,11,11,11,11,11,11,11,11,11,11,11,11,11,11,11,11,11,11,11,11,11,11,11,11,11,11,11,11,11,11,11,11,11,11,
11,200,200,200,200,200,200,200,200,200,200,200,200,200,200,7,8,31,10,11,12,13,31,15,16,200,200,200,200,200,200,200,200,200,200,200,200,200,200,11,
11,200,200,200,200,200,200,200,200,200,200,200,200,200,200,29,30,31,10,11,12,13,31,37,38,200,200,200,200,200,200,200,200,200,200,200,200,200,200,11,
11,200,200,200,200,200,200,200,200,200,200,200,200,200,200,51,8,31,10,11,12,13,31,15,16,200,200,200,200,200,200,200,200,200,200,200,200,200,200,11,
11,200,200,200,200,200,200,200,200,200,200,200,200,200,200,29,30,31,200,200,200,200,31,37,38,200,200,200,200,200,200,200,200,200,200,200,200,200,200,11,
11,200,200,200,200,200,200,200,200,1,2,3,4,5,6,7,8,31,200,200,200,200,31,15,16,17,18,19,20,21,22,200,200,200,200,200,200,200,200,11,
11,200,200,200,200,200,200,200,200,23,24,25,26,27,28,29,30,31,32,33,34,35,36,37,38,39,40,41,42,43,44,200,200,200,200,200,200,200,200,11,
11,200,200,200,200,200,200,200,200,45,46,47,48,49,50,51,52,53,54,55,56,57,58,59,60,61,62,63,64,65,66,200,200,200,200,200,200,200,200,11,
11,200,200,200,200,200,200,200,200,67,68,69,70,71,72,73,74,75,76,77,78,79,80,81,82,83,84,85,86,87,88,200,200,200,200,200,200,200,200,11,
11,200,200,200,200,200,200,200,200,89,90,91,92,93,94,95,96,97,98,99,100,101,102,103,104,105,106,107,108,109,110,200,200,200,200,200,200,200,200,11,
11,200,200,200,200,200,200,200,200,111,112,113,114,115,116,117,118,119,120,121,122,123,124,125,126,127,128,129,130,131,132,200,200,200,200,200,200,200,200,11,
11,200,200,200,200,200,200,200,200,133,134,135,136,137,138,139,140,141,142,143,144,145,146,147,148,149,150,151,152,153,154,200,200,200,200,200,200,200,200,11,
11,200,200,200,200,200,200,200,200,155,156,157,158,159,160,161,162,163,164,165,166,167,168,169,170,171,172,173,174,175,176,200,200,200,200,200,200,200,200,11,
11,200,200,200,200,200,200,200,200,177,178,179,180,181,182,183,184,185,186,187,188,189,190,191,192,193,194,195,196,197,198,200,200,200,200,200,200,200,200,11,
11,200,200,200,200,200,200,200,200,199,200,201,202,203,204,205,206,207,208,209,210,211,212,213,214,215,216,217,218,219,220,200,200,200,200,200,200,200,200,11,
11,200,200,200,200,200,200,200,200,221,222,223,224,225,226,227,228,229,230,231,232,233,234,235,236,237,238,239,240,241,242,200,200,200,200,200,200,200,200,11,
11,243,244,243,244,243,244,243,244,243,244,245,246,247,248,249,250,251,252,253,254,255,256,257,258,259,260,261,262,263,264,264,263,264,263,264,263,264,263,11,
11,265,265,266,266,265,265,266,265,265,266,267,268,269,270,271,272,273,274,275,276,277,278,279,280,281,282,283,284,285,286,286,286,286,286,286,286,286,286,11,
11,287,287,288,288,287,287,288,287,287,288,289,290,291,292,293,294,295,296,297,298,299,300,301,302,303,304,305,306,307,308,308,308,308,308,308,308,308,308,11,
11,309,309,310,310,309,309,310,309,309,310,311,312,313,314,315,316,317,318,319,320,321,322,323,324,325,326,327,328,329,330,330,330,330,330,330,330,330,330,11,
11,331,331,332,332,331,331,332,331,331,332,333,334,335,336,337,338,339,340,341,342,343,344,345,346,347,348,349,350,351,352,352,352,352,352,352,352,352,352,11,
11,353,353,354,354,353,353,354,353,353,354,355,356,357,358,359,360,361,362,363,364,365,366,367,368,369,370,371,372,373,374,374,374,374,374,374,374,374,374,11,
11,200,200,200,200,200,200,200,200,375,376,377,378,379,380,381,382,383,384,385,386,387,388,389,390,391,392,393,394,395,396,200,200,200,200,200,200,200,200,11,
11,200,200,200,200,200,200,200,200,397,398,399,400,401,402,403,404,405,406,407,408,409,410,411,412,413,414,415,416,417,418,200,200,200,200,200,200,200,200,11,
11,200,200,200,200,200,200,200,200,419,420,421,422,423,424,425,426,427,428,429,430,431,432,433,434,435,436,437,438,439,440,200,200,200,200,200,200,200,200,11,
11,200,200,200,200,200,200,200,200,441,442,443,444,445,446,447,448,449,450,451,452,453,454,455,456,457,458,459,460,461,462,200,200,200,200,200,200,200,200,11,
11,200,200,200,200,200,200,200,200,463,464,465,466,467,468,469,470,471,472,473,474,475,476,477,478,479,480,481,482,483,484,200,200,200,200,200,200,200,200,11,
11,11,11,11,11,11,11,11,11,11,11,11,11,11,11,11,11,11,11,11,11,11,11,11,11,11,11,11,11,11,11,11,11,11,11,11,11,11,11,11
</data>
 </layer>
 <layer id="2" name="walls" width="40" height="28">
  <data encoding="csv">
11,11,11,11,11,11,11,11,11,11,11,11,11,11,11,11,11,11,11,11,11,11,11,11,11,11,11,11,11,11,11,11,11,11,11,11,11,11,11,11,
11,0,0,0,0,0,0,0,0,0,0,0,0,0,0,0,0,0,0,0,0,0,0,0,0,0,0,0,0,0,0,0,0,0,0,0,0,0,0,11,
11,0,0,0,0,0,0,0,0,0,0,0,0,0,0,0,0,0,0,0,0,0,0,0,0,0,0,0,0,0,0,0,0,0,0,0,0,0,0,11,
11,0,0,0,0,0,0,0,0,0,0,0,0,0,0,0,0,0,0,0,0,0,0,0,0,0,0,0,0,0,0,0,0,0,0,0,0,0,0,11,
11,0,0,0,0,0,0,0,0,0,0,0,0,0,0,0,0,0,0,0,0,0,0,0,0,0,0,0,0,0,0,0,0,0,0,0,0,0,0,11,
11,0,0,0,0,0,0,0,0,0,0,0,0,0,0,0,0,0,0,0,0,0,0,0,0,0,0,0,0,0,0,0,0,0,0,0,0,0,0,11,
11,0,0,0,0,0,0,0,0,0,0,0,0,0,0,0,0,0,0,0,0,0,0,0,0,0,0,0,0,0,0,0,0,0,0,0,0,0,0,11,
11,0,0,0,0,0,0,0,0,0,0,0,0,0,0,0,0,0,0,0,0,0,0,0,0,0,0,0,0,0,0,0,0,0,0,0,0,0,0,11,
11,0,0,0,0,0,0,0,0,0,0,0,0,0,0,0,0,0,0,0,0,0,0,0,0,0,0,0,0,0,0,0,0,0,0,0,0,0,0,11,
11,0,0,0,0,0,0,0,0,0,0,0,0,0,0,0,0,0,0,0,0,0,0,0,0,0,0,0,0,0,0,0,0,0,0,0,0,0,0,11,
11,0,0,0,0,0,0,0,0,0,0,0,0,0,0,0,0,0,0,0,0,0,0,0,0,0,0,0,0,0,0,0,0,0,0,0,0,0,0,11,
11,0,0,0,0,0,0,0,0,0,0,0,0,0,0,0,0,0,0,0,0,0,0,0,0,0,0,0,0,0,0,0,0,0,0,0,0,0,0,11,
11,0,0,0,0,0,0,0,0,0,0,0,0,0,0,0,0,0,0,0,0,0,0,0,0,0,0,0,0,0,0,0,0,0,0,0,0,0,0,11,
11,0,0,0,0,0,0,0,0,0,0,0,0,0,0,0,0,0,0,0,0,0,0,0,0,0,0,0,0,0,0,0,0,0,0,0,0,0,0,11,
11,0,0,0,0,0,0,0,0,0,0,0,0,0,0,0,0,0,0,0,0,0,0,0,0,0,0,0,0,0,0,0,0,0,0,0,0,0,0,11,
11,0,0,0,0,0,0,0,0,0,0,0,0,0,0,0,0,0,0,0,0,0,0,0,0,0,0,0,0,0,0,0,0,0,0,0,0,0,0,11,
11,0,0,0,0,0,0,0,0,0,0,0,0,0,0,0,0,0,0,0,0,0,0,0,0,0,0,0,0,0,0,0,0,0,0,0,0,0,0,11,
11,0,0,0,0,0,0,0,0,0,0,0,0,0,0,0,0,0,0,0,0,0,0,0,0,0,0,0,0,0,0,0,0,0,0,0,0,0,0,11,
11,0,0,0,0,0,0,0,0,0,0,0,0,0,0,0,0,0,0,0,0,0,0,0,0,0,0,0,0,0,0,0,0,0,0,0,0,0,0,11,
11,0,0,0,0,0,0,0,0,0,0,0,0,0,0,0,0,0,0,0,0,0,0,0,0,0,0,0,0,0,0,0,0,0,0,0,0,0,0,11,
11,0,0,0,0,0,0,0,0,0,0,0,0,0,0,0,0,0,0,0,0,0,0,0,0,0,0,0,0,0,0,0,0,0,0,0,0,0,0,11,
11,0,0,0,0,0,0,0,0,0,0,0,0,0,0,0,0,0,0,0,0,0,0,0,0,0,0,0,0,0,0,0,0,0,0,0,0,0,0,11,
11,0,0,0,0,0,0,0,0,0,0,0,0,0,0,0,0,0,0,0,0,0,0,0,0,0,0,0,0,0,0,0,0,0,0,0,0,0,0,11,
11,0,0,0,0,0,0,0,0,0,0,0,0,0,0,0,0,0,0,0,0,0,0,0,0,0,0,0,0,0,0,0,0,0,0,0,0,0,0,11,
11,0,0,0,0,0,0,0,0,0,0,0,0,0,0,0,0,0,0,0,0,0,0,0,0,0,0,0,0,0,0,0,0,0,0,0,0,0,0,11,
11,0,0,0,0,0,0,0,0,0,0,0,0,0,0,0,0,0,0,0,0,0,0,0,0,0,0,0,0,0,0,0,0,0,0,0,0,0,0,11,
11,0,0,0,0,0,0,0,0,0,0,0,0,0,0,0,0,0,0,0,0,0,0,0,0,0,0,0,0,0,0,0,0,0,0,0,0,0,0,11,
11,11,11,11,11,11,11,11,11,11,11,11,11,11,11,11,11,11,11,11,11,11,11,11,11,11,11,11,11,11,11,11,11,11,11,11,11,11,11,11
</data>
 </layer>
 <objectgroup id="4" name="objs">
  <object id="2" name="Boss" type="Enemy" x="160" y="76">
   <properties>
    <property name="flags" type="int" value="3"/>
    <property name="strength" type="int" value="5"/>
   </properties>
   <point/>
  </object>
  <object id="5" name="Spawn" x="208" y="192">
   <point/>
  </object>
  <object id="11" name="HealthItem" type="Item" x="288" y="184">
   <point/>
  </object>
  <object id="15" name="OrcMinion" type="Enemy" x="32" y="200">
   <properties>
    <property name="walk" value="R120,L120"/>
   </properties>
   <point/>
  </object>
  <object id="17" name="Doublejump" type="Item" x="240" y="192">
   <point/>
  </object>
  <object id="18" name="Dash" type="Item" x="112" y="192">
   <point/>
  </object>
  <object id="19" name="Walljump" type="Item" x="88" y="192">
   <point/>
  </object>
  <object id="20" name="Airdash" type="Item" x="64" y="192">
   <point/>
  </object>
  <object id="21" name="BossHand" type="Enemy" x="56" y="136">
   <properties>
    <property name="walk" value="U120,D120"/>
   </properties>
   <point/>
  </object>
  <object id="22" name="BossHand" type="Enemy" x="264" y="96">
   <properties>
    <property name="walk" value="D120,U120"/>
   </properties>
   <point/>
  </object>
  <object id="23" name="OrcMinion" type="Enemy" x="288" y="200">
   <properties>
    <property name="walk" value="L120,R120"/>
   </properties>
   <point/>
  </object>
 </objectgroup>
</map>
